!!!COM: Scarlatti, Domenico
!!!CDT: 1685///-1757///
!!!OTL: Sonata in C Major, K.170, L.303
!!!SCT: K. 170
!!!SCT: L. 303
!!!OMD: Andante moderato e cantabile
**kern	**kern	**dynam
*staff2	*staff1	*staff1/2
*Icemba	*Icemba	*Icemba
*>[A,A,B,B]	*>[A,A,B,B]	*>[A,A,B,B]
*>norep[A,B]	*>norep[A,B]	*>norep[A,B]
*>A	*>A	*>A
*clefF4	*clefG2	*clefG2
*k[]	*k[]	*k[]
*C:	*C:	*C:
*M2/2	*M2/2	*M2/2
*MM132	*MM132	*MM132
4r	(4ee\	p
=1	=1	=1
4r	12gg\L	.
.	12ff\	.
.	12ee\J)	.
*clefG2	*	*
4c/	(2ee\	.
4e/	.	.
4g/	4dd\	.
=2	=2	=2
4r	2cc\)	.
4a/	.	.
4g/	(4.ccc\	mf
4f/	.	.
.	16bb\LL	.
.	16aa\JJ	.
=3	=3	=3
4e/ 4g/	4gg\	.
4c/	4ee\	>
.	ggq/	)
4d/ 4f/	2ff\	)
4G/	.	)
=4	=4	=4
4r	2ee\)	)
4c/	.	]
4d/	(4.gg\	p
4e/	.	.
.	16ff\LL	.
.	16ee\JJ	.
=5	=5	=5
4f/	4dd\	.
4f#/	4a/	.
4g/	2b\	.
4fn/	.	.
=6	=6	=6
4r	2cc\)	.
4e/	.	.
4d/	4r	.
4c/	(4ccc\	mf
=7	=7	=7
4r	4ee\	>
4d/	2ff\)	)
4B/	.	)
4G/	(4ddd\	]
=8	=8	=8
4r	4dd\	>
4c/	2ee\)	)
4e/	.	)
4c/	(4ccc\	)
=9	=9	=9
4r	4cc\)	)
4f/	(2aa\	)
4a/	.	)
4f/	4cc\	]
=10	=10	=10
4g/	4.b\	>
4d/	.	)
.	8a/	)
*clefF4	*	*
2G\	4g/)	]
.	(4dd\	p
=11	=11	=11
4r	4f/)	.
4d\	(2ff\	>
4B\	.	)
4c\	4ee\	)
=12	=12	=12
4r	4a/)	]
4F\	(2aa\	>
4f\	.	)
4e\	4gg\	)
=13	=13	=13
4d\	4b\)	)
4c\	(12ff\L	)
.	12ee\	)
.	12dd\J	)
4g'\	4cc'\ 4ee'\	)
4G'\	4b'\ 4dd'\	)
=14	=14	=14
4c'\	2cc\)	)
4C'/	.	)
2CC/	4r	]
.	(4ee-\	p
=15	=15	=15
4r	12gg\L	.
.	12ff\	.
.	12ee-\J)	.
4c\	(2ee-\	.
4e-\	.	.
4g\	4dd\	.
=16	=16	=16
4r	2cc\)	mf
4a-\	.	.
4g\	(4.ccc\	.
4f\	.	.
.	16bb-\LL	.
.	16aa-\JJ	.
=17	=17	=17
4e-\	4gg\)	.
4c\	(4ccc\	.
.	ggq/	.
4d\ 4f\	2ff\	>
4G\	.	)
=18	=18	=18
4c\	2ee-\)	)
4C/	.	)
.	(ee-q/LL	)
.	ffq/JJ	]
4r	(4.gg\)	p
4e-\	.	.
.	16ff\LL	.
.	16ee-\JJ	.
=19	=19	=19
4f\	4dd\	.
4g\	4b\	.
4a-\	4.cc\	.
4A-\	.	.
.	16b\LL	.
.	16cc\JJ	.
=20	=20	=20
4G\	2dd\)	.
4B\	.	.
2g\	4r	.
.	4dd\	p
=21	=21	=21
4r	(12dd\L	.
.	12ee\	.
.	12ff#\J	.
*clefG2	*	*
(4d/ 4b/	12gg\L	.
.	12aa\	.
.	12bb\J	.
4d'/ 4b'/	4gg'\	.
4d'/) 4b'/	4dd'\)	.
=22	=22	=22
.	eeq/	.
4r	(4dd\	.
(4d'/ 4a'/	2cc\)	.
4d'/ 4a'/	.	.
4d'/) 4a'/	4cc\	.
=23	=23	=23
4r	(12cc\L	.
.	12dd\	.
.	12ee\J	.
(4d'/ 4a'/	12ff#\L	.
.	12gg\	.
.	12aa\J	.
4d'/ 4a'/	4ff#'\	.
4d'/) 4a'/	4cc'\)	.
=24	=24	=24
.	ddq/	.
4r	(4cc\	.
(4d'/ 4g'/	2b\)	.
4d'/ 4g'/	.	.
4d'/) 4g'/	4b\	.
=25	=25	=25
4r	(12b/L	.
.	12a/	.
.	12b/J	.
(4c'/ 4e'/	12cc\L	.
.	12dd\	.
.	12dd#\J	.
4c'/ 4e'/	4ee'\	.
4c'/) 4e'/	4b'\)	.
=26	=26	=26
4r	(12a/L	.
.	12g/	.
.	12a/J	.
*clefF4	*	*
4B\ (4d\	12b\L	.
.	12cc\	.
.	12cc#\J	.
4B'\ 4d'\	4dd'\	.
4B'\ 4d'\)	4gg'\)	.
=27	=27	=27
4r	(12gg\L	.
.	12ff#\	.
.	12aa\J	.
4A\ 4c\	4ccn\	.
4r	(12gg\L)	.
.	12ff#\	.
.	12aa\J	.
4G\ 4c\	4cc\)	.
=28	=28	=28
4r	(12gg\L	.
.	12ff#\	.
.	12aa\J	.
4F#\ 4c\	4cc\)	.
4r	(12gg\L	.
.	12ff#\	.
.	12aa\J	.
4E\ 4c\	4cc\)	.
=29	=29	=29
2D\ 2A\ 2c\	16r	.
.	(16cc\LL	<
.	16dd\	(
.	16ee\JJ	(
.	16ff#\LL	(
.	16gg\	(
.	16aa\	(
.	16bb\JJ	(
2r	8ccc\L	[
.	8bb\)	mf
.	(8aa\	>
.	8gg\J)	)
=30	=30	=30
2C\ 2A\ 2c\	16r	]
.	(16cc\LL	pp
.	16dd\	.
.	16ee\JJ	.
.	16ff#\LL	.
.	16gg\	.
.	16aa\	.
.	16bb\JJ	.
2r	8ccc\L	.
.	8bb\)	.
.	(8aa\	.
.	8gg\J)	.
=31	=31	=31
2BB\ 2G\ 2B\	16r	.
.	(16dd\LL	mf
.	16ee\	.
.	16ff#\JJ	.
.	16gg\LL	.
.	16aa\	.
.	16bb\	.
.	16ccc\JJ	.
4r	8ddd\L)	.
.	(8bb\	.
4B\	8gg\	.
.	8dd\J	.
=32	=32	=32
4c\	8ee'\)	.
.	(4cc\	.
4C/	.	.
.	16b/LL	.
.	16a/JJ	.
4D/	4g/ 4b/	.
4DD/	4f#/ 4a/	.
=33	=33	=33
*	*^	*
4.GG/	8g/L	4.g\)	.
.	(8gg/	.	p
.	8ffn/	.	.
8g\	8ee-/J	8r	.
8f\L	2r	8dd\L	<
8e-\	.	8cc\J	(
8d\	.	8b-\L	(
8c\J	.	16cc\L	(
.	.	32b-\L	(
.	.	32cc\JJJ	(
*	*v	*v	*
=34	=34	=34
4.B-\	8dd\L)	(
.	(8gg\	(
.	8ff\	(
8g\	8ee-\J	(
8f\L	8dd\L	(
8e-\	8cc\J	(
8d\	8b-\L	(
8c\J	16cc\L	(
.	32b-\L	(
.	32cc\JJJ	[
=35	=35	=35
4.B-\	8dd'\L)	mf
.	(8ddd\	.
.	8ccc\	.
8d\	8bb-\J	.
8c\L	8aa\L	.
8B-\	8gg\J	.
8A\	8ff#\L	.
8G\J	16gg\L	.
.	32ff#\L	.
.	32gg\JJJ	.
=36	=36	=36
4.F#\	8aa\L)	.
.	(8ddd\	p
.	8ccc\	.
*clefG2	*	*
(8dd\	8bb-\J	.
8cc/L	8aa'\L	.
8b-/	8gg\J	.
8a/	8ff#\L	.
8g/J	16gg\L	.
.	32ff#\L	.
.	32gg\JJJ)	.
=37	=37	=37
2f#/	8r	.
.	8ff#'\ 8aa'\L	.
.	8ff#\ 8aa\	.
.	8gg\ 8bbn\J	.
2e/)	8r	.
.	8gg'\ 8bb'\L	.
.	8gg\ 8bb\	.
.	8aa\ 8ccc\J	.
*clefF4	*	*
=38	=38	=38
2D\ 2A\ 2d\	16r	.
.	(16cc\LL	p
.	16dd\	.
.	16ee\JJ	.
.	16ff#\LL	.
.	16gg\	.
.	16aa\	.
.	16bb\JJ	.
2r	8ccc\L	mf
.	8bb\)	>
.	(8aa\	)
.	8gg\J)	)
=39	=39	=39
2C\ 2A\ 2c\	16r	]
.	(16cc\LL	pp
.	16dd\	.
.	16ee\JJ	.
.	16ff#\LL	.
.	16gg\	.
.	16aa\	.
.	16bb\JJ	.
2r	8ccc\L	.
.	8bb\)	.
.	(8aa\	.
.	8gg\J)	.
=40	=40	=40
2BB\ 2G\ 2B\	16r	.
.	(16dd\LL	mf
.	16ee\	.
.	16ff#\JJ	.
.	16gg\LL	.
.	16aa\	.
.	16bb\	.
.	16ccc\JJ	.
4r	8ddd\L)	.
.	(8bb\	.
4B\	8gg\	.
.	8dd\J	.
=41	=41	=41
4c\	8ee'\)	.
.	(4cc\	.
(4c\	.	.
.	16b/LL	.
.	16a/JJ	.
4d\)	4g/ 4b/	.
4d\	4f#/ 4a/)	.
=42	=42	=42
4r	8ee'\	p
.	(4cc\	.
(4c\	.	.
.	16b/LL	.
.	16a/JJ	.
4d\)	4g/ 4b/	.
4d\	4f#/ 4a/)	.
=43	=43	=43
4r	(16a/LL	mf
.	16g/	.
.	16b/	.
.	16a/JJ	.
(4c\	16cc\LL	.
.	16b\	.
.	16dd\	.
.	16cc\JJ	.
4d\)	4gn/ 4b/	.
4d\	4f#/ 4a/)	.
=44	=44	=44
4r	(16a/LL	p
.	16g/	.
.	16b/	.
.	16a/JJ	.
(4c\	16cc\LL	.
.	16b\	.
.	16dd\	.
.	16cc\JJ	.
4d\	4gn/ 4b/	.
4c\	4f#/ 4a/)	.
=45	=45	=45
4B\	8gg\L	mf
.	8dd\J	.
4c'\	16cc\LL	.
.	16b\J	.
.	8a\J	.
4d\	4g/ 4b/	.
4D\	4f#/ 4a/	.
=46	=46	=46
2GG/)	2g/	.
4r	4r	.
=:|!	=:|!	=:|!
*>B	*>B	*>B
4r	4r	.
=47	=47	=47
*M3/8	*M3/8	*M3/8
*MM126	*MM126	*MM126
4G'\	8dd'/L	p
.	(8g/	.
8A\	8f#/J	.
=48	=48	=48
8B\L	8g/L	<
8A\	8a/	(
8G\J	8b/J)	[
=49	=49	=49
8c\L	(16b/LL	mf
.	16a/)	.
8d\	(16a/	.
.	16g/)	.
8c\J	(16g/	.
.	16f#/JJ	.
=50	=50	=50
8B'\L	8g'/L)	.
8A'\	8a'/	.
8G'\J	8b'/J	.
=51	=51	=51
8c\L	(16b/LL	p
.	16a/)	.
8d\	(16a/	.
.	16g/)	.
8c\J	(16g/	.
.	16f#/JJ	.
=52	=52	=52
8B'\L	8g'/L)	.
8A'\	8a'/	.
8G'\J	8b'/J	.
=53	=53	=53
.	(ccq/LL	.
.	ddq/JJ	.
8c\L	(8ee\L)	mf
8d\	16dd\L	.
.	16cc\	.
8c\J	16b\	.
.	16a\JJ	.
=54	=54	=54
8B\L	8g/L	.
8A'\	8f#'/)	.
8G'\J	8g'/J	.
=55	=55	=55
8r	8gg'\L	.
8c\L	(8cc\	p
8d\J	8b\J	.
=56	=56	=56
8e\L	8cc\L	<
8d\	8dd\	(
8c\J	8ee\J)	(
=57	=57	=57
8f\L	(16ee\LL	(
.	16dd\)	(
8g\	(16dd\	(
.	16cc\)	(
8f\J	(16cc\	(
.	16b\JJ	(
=58	=58	=58
8e'\L	8cc'\L)	(
8d'\	8dd'\	(
8c'\J	8ee'\J	[
=59	=59	=59
8f\L	(16ee\LL	p
.	16dd\)	.
8g\	(16dd\	.
.	16cc\)	.
8f\J	(16cc\	.
.	16b\JJ	.
=60	=60	=60
8e'\L	8cc'\L)	.
8d'\	8dd'\	.
8c'\J	8ee'\J	.
=61	=61	=61
8f\L	(16dd\LL	<
.	16aa\	(
8g'\	16gg\	(
.	16ff\	(
8G'\J	16ee\	(
.	16dd\JJ	[
=62	=62	=62
4.C/	8cc\L	f
.	8b\)	.
.	8cc'\J	.
=63	=63	=63
4A-\ 4e-\	8r	.
.	(16cc\LL	<
.	16dd\	(
8A-\ 8e-\	16ee-\	(
.	16dd\JJ	[
=64	=64	=64
8G'\ 8e-'\L	8ee-'\L)	mf
8F'\	8ff'\	.
8E-'\J	8gg'\J	.
=65	=65	=65
8A-'\L	8ff'\L	.
8B-'\	8ee-'\	.
8BB-'\J	8dd'\J	.
=66	=66	=66
4.E-\	(8ee-\L	>
.	8dd\)	)
.	8ee-'\J	)
=67	=67	=67
4B-\ 4f\	8r	]
.	(16dd\LL	p
.	16een\	.
8B-\ 8f\	16ff\	.
.	16ee\JJ	.
=68	=68	=68
8A-\ 8f\L	8ff'\L)	mf
8G'\	8gg'\	.
8F'\J	8aa-'\J	.
=69	=69	=69
8B-'\L	8gg'\L	.
8c'\	8ff'\	.
8C'\J	8ee'\J	.
=70	=70	=70
4.F\	(8ff\L	>
.	8ee\)	)
.	8ff'\J	)
=71	=71	=71
4c\ 4g\	8r	]
.	(16ee\LL	<
.	16ff#\	(
8c\ 8g\	16gg\	(
.	16ff#\JJ	(
=72	=72	=72
8B-\ 8g\L	8gg'\L)	(
8A\	8aa'\	(
8G'\J	8bb-'\J	(
=73	=73	=73
8c'\L	8aa'\L	(
8d'\	8gg'\	(
8D'\J	8ff#'\J	[
=74	=74	=74
4G\	8gg'\L	f
.	(16b-\L	p
.	16cc\	<
*clefG2	*	*
8g/ 8b-/	16dd\	(
.	16ee-\JJ	(
=75	=75	=75
4f#/ 4a/	8ee-'\L)	(
.	(16dd\L	(
.	16cc\	(
8g/ 8b-/	16dd\	(
.	16ee-\JJ	(
=76	=76	=76
4f#/ 4a/	8ee-'\L)	(
.	(16dd\L	(
.	16cc\	(
8g/ 8b-/	16dd\	(
.	16ee-\JJ	(
=77	=77	=77
8fn/ 8a/L	8ee-'\L)	(
(8f/ 8a/	8dd'\	(
8e-/ 8g/J	8gg'\J	(
=78	=78	=78
.	ggq/	[
4.d/) 4.a/	8.ff#\L	f
.	16een\k	.
.	8dd\J	.
*clefF4	*	*
=79	=79	=79
8e-'\ 8g'\L	(16gg\LL	f
.	16cc\	.
8d'\ 8f'\	16ffn\	.
.	16b-\	.
8c'\ 8e-'\J	16ee-\	.
.	16a\JJ	.
=80	=80	=80
8B-'\ 8d'\L	16dd/LL	.
.	16g/	.
8A'\ 8c'\	16cc/	.
.	16f#/J	.
8G'\ 8B-'\J	8b-'/J)	.
=81	=81	=81
8c'\L	8a'/L	.
8d'\	8g'/	.
8D'\J	8f#'/J	.
=82	=82	=82
8e-\ 8g\L	(16gg\LL	p
.	16cc\	.
8d\ 8f\	16ffn\	.
.	16b-\	.
8c\ 8e-\J	16ee-\	.
.	16a\JJ	.
=83	=83	=83
8B-\ 8d\L	16dd/LL	.
.	16g/	.
8A\ 8c\	16cc/	.
.	16f#/J	.
8G'\ 8B-'\J	8b-'/J)	.
=84	=84	=84
8c'\L	8a'/L	.
8d'\	8g'/	.
8D'\J	8f#'/J	.
=85	=85	=85
4.G\	8g'/L	<
.	(16g/L	(
.	16a/	(
.	16bn/	(
.	16cc/JJ)	(
=86	=86	=86
.	ccq/	(
4.D\ 4.F\ 4.G\ 4.B\	8b\L	(
.	(16cc\L	(
.	16dd\	(
.	16ee-\	(
.	16ff\JJ)	(
=87	=87	=87
.	(ffq/	[
4.C\ 4.G\ 4.c\	(8ee-\L)	f
.	16dd\L	.
.	16cc\	.
.	16b-\	.
.	16a\JJ	.
=88	=88	=88
8D'\ 8G'\ 8B-'\	8d'/ 8g'/)	.
4D\ 4A\	4c/ (4f#/	.
=89	=89	=89
4.GG/	8g'/L)	.
.	(16g'/L	p
.	16a/	<
.	16bn/	(
.	16cc/JJ)	(
=90	=90	=90
.	(ccq/	(
4.D\ 4.F\ 4.G\ 4.B\	8b\L)	(
.	(16cc\L	(
.	16dd\	(
.	16ee-\	(
.	16ff\JJ)	(
=91	=91	=91
.	(ffq/	[
4.C\ 4.G\ 4.c\	(8ee-\L)	f
.	16dd\L	.
.	16cc\	.
.	16b-\	.
.	16a\JJ	.
=92	=92	=92
8D'\ 8G'\ 8B-'\	8d'/ 8g'/)	.
(4D\ 4A\	4c/ 4f#/	.
=93	=93	=93
.	f#q/	.
8GG/L)	4.g/	>
(8G/	.	)
8Fn/J	.	)
=94	=94	=94
4E-\) 4B-\	8r	]
.	16g/LL	p
.	16f/	.
(8E-\ 8B-\	16g/	.
.	16a/JJ	.
=95	=95	=95
8D\) 8B-\L	8b-'\L	mf
8C'\	8cc'\	.
8BB-'\J	8dd'\J	.
=96	=96	=96
8E-'/L	8cc'\L	.
8F'/	8b-'\	.
8FF'/J	8a'\J	.
=97	=97	=97
4.BB-/	(8b-\L	>
.	8a\)	)
.	8b-'\J	)
=98	=98	=98
4F\ 4c\	8r	]
.	(16a\LL	p
.	16bn\	.
8F\ 8c\	16cc\	.
.	16b\JJ	.
=99	=99	=99
8E-'\ 8c'\L	8cc\L)	mf
8D'\	8dd'\	.
8C'\J	8ee-'\J	.
=100	=100	=100
8F'/L	8dd'\L	.
8G'/	8cc'\	.
8GG'/J	8b'\J	.
=101	=101	=101
8C'\L	8cc'\L	.
8c\ 8e-\	(16ee-\L	.
.	16cc\	.
8B-\ 8d\J	16dd\	.
.	16b-\JJ	.
=102	=102	=102
8A-\ 8c\L	8ff'\L)	.
8A-\ 8c\	(16ff\L	.
.	16dd\	.
8G\ 8c\J	16ee-\	.
.	16cc\JJ	.
=103	=103	=103
8F\ 8c\L	8aa-'\L)	.
8F\ 8c\	(16aa-\L	.
.	16ff\	.
8E-\ 8c\J	16gg\	.
.	16ee-\JJ	.
=104	=104	=104
8B\L	16ff\LL	.
.	16dd\	.
8c\	16ee-\	.
.	16cc\	.
8c'\J	16aa\	.
.	16cc\JJ)	.
=105	=105	=105
.	(ccq/	.
(8G\	(8.bn/L)	.
4GG/)	.	.
.	16a/k	.
.	8g/J)	.
*clefG2	*	*
=106	=106	=106
4cc\	8r	.
.	(16ee-\LL	p
.	16ff\	.
8cc\	16gg\	.
.	16aa-\JJ	.
=107	=107	=107
4b\	8aa-'\L)	<
.	(16gg\L	(
.	16ff\	(
8cc\	16gg\	(
.	16aa-\JJ	(
=108	=108	=108
4b\	8aa-'\L)	(
.	(16gg\L	(
.	16ff\	(
8cc\	16gg\	(
.	16aa-\JJ	(
=109	=109	=109
8b-\L	8aa-'\L)	(
8b-'\	8gg'\	(
8a-'\ 8cc'\J	8ccc'\J	(
=110	=110	=110
.	(cccq/	[
4.g\ 4.dd\	(8.bb\L)	f
.	16aan\k	.
.	8gg\J)	.
=111	=111	=111
8a-'/ 8cc'/L	(16ccc'\LL	f
.	16ff\	.
8g'/ 8b-'/	16bb-\	.
.	16ee-\	.
8f'/ 8a-'/J	16aa-\	.
.	16dd\JJ	.
=112	=112	=112
8e-'/ 8g'/L	16gg'\LL	.
.	16cc\	.
8d'/ 8f'/	16ff\	.
.	16bn\J	.
8c'/ 8g'/J	8ee-'\J)	.
=113	=113	=113
8f'/L	8dd'\L	.
8g'/	8cc'\	.
8G'/J	8b'\J	.
=114	=114	=114
8a-/ 8cc/L	(16ccc\LL	p
.	16ff\	.
8g/ 8b-/	16bb-\	.
.	16ee-\	.
8f/ 8a-/J	16aa-\	.
.	16dd\JJ	.
=115	=115	=115
8e-/ 8g/L	16gg\LL	.
.	16cc\	.
8d/ 8f/	16ff\	.
.	16bn\J	.
8c'/ 8g'/J	8ee-'\J)	.
=116	=116	=116
8f'/L	8dd'\L	.
8g'/	8cc'\	.
8G'/J	8b'\J	.
=117	=117	=117
4.c/	8cc'\L	<
.	(16cc\L	(
.	16dd\	(
.	16een\	(
.	16ff\JJ)	(
*clefF4	*	*
=118	=118	=118
.	(ffq/	(
4.G\ 4.B-\ 4.c\ 4.e\	8ee\L)	(
.	(16ff\L	(
.	16gg\	(
.	16aa-\	(
.	16bb-\JJ)	(
=119	=119	=119
.	(bb-q/	[
4.F\ 4.c\ 4.f\	(8aa-\L)	f
.	16gg\L	.
.	16ff\	.
.	16ee-\	.
.	16dd\JJ	.
=120	=120	=120
8G'\ 8c'\ 8e-'\	8cc'\)	.
4G\ 4d\ 4f\	4b\	.
=121	=121	=121
4.C\ 4.c\	8cc'\L	.
.	(16cc\L	p
.	16dd\	.
.	16een\	.
.	16ff\JJ)	.
=122	=122	=122
.	(ffq/	.
4.G\ 4.B-\ 4.c\ 4.e\	8ee\L)	.
.	(16ff\L	.
.	16gg\	.
.	16aa-\	.
.	16bb-\JJ)	.
=123	=123	=123
.	bb-q/	.
4.F\ 4.c\ 4.f\	(8aa-\L	f
.	16gg\L	.
.	16ff\	.
.	16ee-\	.
.	16dd\JJ	.
=124	=124	=124
8G'\ 8c'\ 8e-'\	8cc'\)	.
4G\ 4d\ 4f\	(4b\	.
=125	=125	=125
4C/	8cc\L)	.
.	(16een\L	p
.	16ff\	.
8c\ 8g\	16gg\	.
.	16aa\JJ	.
=126	=126	=126
8B'\ 8g'\L	8dd'\L)	<
8B'\ 8g'\	(16ee\L	(
.	16ff\	(
8B\ 8g\J	16gg\	(
.	16aa\JJ	(
=127	=127	=127
8A\ 8g\L	8cc'\L)	(
8A'\ 8g'\	(16ee\L	(
.	16ff\	(
8A\ 8g\J	16gg\	(
.	16aa\JJ	(
=128	=128	=128
8G'\ 8g'\L	8b'\L)	(
8G\ 8g\	(16ee\L	(
.	16ff\	(
8G\ 8g\J	16gg\	(
.	16aa\JJ	(
=129	=129	=129
8F'\ 8f'\L	8a'\L)	(
8F'\ 8f'\	(16ee\L	(
.	16ff\	(
8F\ 8f\J	16gg\	(
.	16aa\JJ	[
=130	=130	=130
8E'\ 8e'\L	8gg'\L)	f
8D'\ 8d'\	8ff'\	.
8C'\ 8c'\J	8ee'\J	.
=131	=131	=131
8F'\L	8dd'\L	.
8G'\	8cc'\	.
8GG'\J	8b'\J	.
=132	=132	=132
4C/	8cc'\L	.
.	(16ee\L	p
.	16ff\	.
8c\ 8g\	16gg\	.
.	16aa\JJ	.
=133	=133	=133
8B\ 8g\L	8dd'\L)	<
8B'\ 8g'\	(16ee\L	(
.	16ff\	(
8B\ 8g\J	16gg\	(
.	16aa\JJ	(
=134	=134	=134
8A\ 8g\L	8cc'\L)	(
8A'\ 8g'\	(16ee\L	(
.	16ff\	(
8A\ 8g\J	16gg\	(
.	16aa\JJ	(
=135	=135	=135
8G'\ 8g'\L	8b'\L)	(
8G'\ 8g'\	(16ee\L	(
.	16ff\	(
8G\ 8g\J	16gg\	(
.	16aa\JJ	(
=136	=136	=136
8F'\ 8f'\L	8a'\L)	(
8F'\ 8f'\	(16ee\L	(
.	16ff\	(
8F\ 8f\J	16gg\	(
.	16aa\JJ	[
=137	=137	=137
8E'\ 8e'\L	8gg'\L)	f
8D'\ 8d'\	8ff'\	.
8C'\ 8c'\J	8ee'\J	.
=138	=138	=138
8F'\L	8dd'\L	.
8G'\	8cc'\	.
8GG'\J	8b'\J	.
=139	=139	=139
(8c\L	(16cc\LL	.
.	16gg\	.
8d\	16ee\	.
.	16cc\J	.
8e\J	8gg'\J)	.
=140	=140	=140
8f'\L)	8dd'\	.
(8g\	4ff\	.
8G\J	.	.
=141	=141	=141
8c\L	16ee\LL	.
.	16gg\	.
8d\	16ee\	.
.	16cc\J	.
8e\J	8gg'\J	.
=142	=142	=142
8f'\L)	8dd'\	.
(8g\	4ff\	.
8G\J)	.	.
=143	=143	=143
(8C\L	(16ee\LL	.
.	16gg\	.
8D\	16ee\	.
.	16cc\J	.
8E\J	8ccc\J)	.
=144	=144	=144
8F'/L)	8c'/	.
(8G/	4d/	.
8GG/J)	.	.
=145	=145	=145
4.CC/	4.c/	.
==:|!	==:|!	==:|!
*-	*-	*-
!!!ENC: Craig Stuart Sapp
!!!END: 2004/11/06/
